svg/u1fa73.svg

<svg viewBox="0 0 128 128" xmlns="http://www.w3.org/2000/svg">
  <defs/>
  <path d="M112.44,23.63 L64.01,23.63 L63.99,23.63 L15.56,23.63 L6.91,88.04 L58.89,99.65 L62.49,79.4 C62.64,78.56 63.32,78.15 63.99,78.16 C64.67,78.15 65.34,78.57 65.49,79.4 L69.09,99.65 L121.07,88.04 L112.44,23.63 Z" fill="#29B6F6"/>
  <path d="M113.13,12.07 C113.05,9.8 111.28,8.01 109.12,8.01 L18.86,8.01 C16.7,8.01 14.93,9.8 14.85,12.07 L15.56,23.63 L112.41,23.63 L113.13,12.07 Z" fill="#1C3AA9"/>
  <path d="M6.76,89.22 C6.76,89.22 4.67,105.61 4.01,110.55 C3.91,111.34 5.21,112.24 5.21,112.24 C24.36,121.99 53.34,121.96 53.34,121.96 C54.18,122.13 54.99,121.58 55.14,120.74 C55.53,118.53 55.93,116.32 56.32,114.11 C56.72,111.85 58.33,102.8 58.73,100.54 L6.76,89.22 Z" fill="#2A56C6"/>
  <path d="M58.52,101.73 C55.1,99.65 53.74,90.13 49.7,89.64 C45.66,89.15 42.14,96.89 37.45,96.22 C32.76,95.56 33,85.97 27.87,84.93 C23.22,83.99 18.96,92.55 14.12,90.88 C10.79,89.74 11.77,84.43 7.61,82.74 L5.8,96.39 C6.93,98.94 8.87,101.86 12.95,102.83 C18.29,104.09 20.82,100.47 22.95,98.45 C23.55,97.88 24.55,96.6 25.43,96.64 C26.7,96.71 26.95,98.2 27.24,99.4 C27.91,102.25 29.74,106.79 35.08,108.05 C40.42,109.31 43.53,106.09 45.65,104.08 C46.25,103.51 47.15,101.95 48.14,102.22 C49.13,102.49 49.09,103.59 49.55,104.9 C50.47,107.53 51.78,111.63 56.52,113.14 L58.52,101.73 Z" fill="#4DB6AC"/>
  <path d="M58.25,103.24 L59.23,97.76 C58.49,97.25 57.93,96.2 57.23,94.26 C56.27,91.62 54.96,88 50.77,87.01 C46.58,86.02 43.79,88.67 41.75,90.61 C39.83,92.43 38.93,93.15 37.71,92.86 C36.49,92.57 36.01,91.53 35.11,89.05 C34.15,86.41 32.84,82.79 28.65,81.8 C24.46,80.81 21.67,83.46 19.63,85.4 C17.71,87.22 16.81,87.93 15.6,87.65 C14.38,87.36 13.9,86.32 13,83.83 C12.2,81.61 11.25,78.77 8.44,77.31 L7.38,84.34 C7.54,84.73 7.7,85.17 7.89,85.68 C8.85,88.32 10.16,91.94 14.35,92.93 C18.54,93.92 21.33,91.27 23.37,89.33 C25.29,87.51 26.19,86.79 27.4,87.08 C28.62,87.37 29.1,88.41 30,90.89 C30.96,93.53 32.27,97.15 36.46,98.14 C40.65,99.13 43.44,96.48 45.48,94.54 C47.4,92.72 48.3,92.01 49.52,92.29 C50.74,92.58 51.23,93.62 52.13,96.11 C53.04,98.66 54.41,102.11 58.25,103.24 Z" fill="#82E8B6"/>
  <path d="M121.24,89.22 C121.24,89.22 123.33,105.61 123.99,110.55 C124.09,111.34 122.79,112.24 122.79,112.24 C103.64,121.99 74.66,121.96 74.66,121.96 C73.82,122.13 73.01,121.58 72.86,120.74 C72.47,118.53 72.07,116.32 71.68,114.11 C71.28,111.85 69.67,102.8 69.27,100.54 L121.24,89.22 Z" fill="#2A56C6"/>
  <path d="M69.48,101.73 C72.9,99.65 74.26,90.13 78.3,89.64 C82.34,89.15 85.86,96.89 90.55,96.22 C95.24,95.56 95,85.97 100.13,84.93 C104.78,83.99 109.04,92.55 113.88,90.88 C117.21,89.74 116.23,84.43 120.39,82.74 L122.21,96.4 C121.08,98.95 119.14,101.87 115.06,102.84 C109.72,104.1 107.19,100.48 105.06,98.46 C104.46,97.89 103.46,96.61 102.58,96.65 C101.31,96.72 101.06,98.21 100.77,99.41 C100.1,102.26 98.27,106.8 92.93,108.06 C87.59,109.32 84.48,106.1 82.36,104.09 C81.76,103.52 80.86,101.96 79.87,102.23 C78.89,102.5 78.92,103.6 78.46,104.91 C77.54,107.54 76.23,111.64 71.49,113.15 L69.48,101.73 Z" fill="#4DB6AC"/>
  <path d="M69.75,103.24 L68.77,97.76 C69.51,97.25 70.07,96.2 70.77,94.26 C71.73,91.62 73.04,88 77.23,87.01 C81.42,86.02 84.21,88.67 86.25,90.61 C88.17,92.43 89.07,93.15 90.29,92.86 C91.51,92.57 91.99,91.53 92.89,89.05 C93.85,86.41 95.16,82.79 99.35,81.8 C103.54,80.81 106.33,83.46 108.37,85.4 C110.29,87.22 111.19,87.93 112.4,87.65 C113.62,87.36 114.1,86.32 115,83.83 C115.8,81.61 116.75,78.77 119.56,77.31 L120.62,84.34 C120.46,84.73 120.3,85.17 120.11,85.68 C119.15,88.32 117.84,91.94 113.65,92.93 C109.46,93.92 106.67,91.27 104.63,89.33 C102.71,87.51 101.81,86.79 100.6,87.08 C99.38,87.37 98.9,88.41 98,90.89 C97.04,93.53 95.73,97.15 91.54,98.14 C87.35,99.13 84.56,96.48 82.52,94.54 C80.6,92.72 79.7,92.01 78.48,92.29 C77.26,92.58 76.77,93.62 75.87,96.11 C74.96,98.66 73.59,102.11 69.75,103.24 Z" fill="#82E8B6"/>
  <path d="M78.43,19.08 L56.15,19.08 C54.77,19.08 53.65,17.96 53.65,16.58 L53.65,14.36 C53.65,12.99 54.77,11.86 56.15,11.86 L78.43,11.86 C79.81,11.86 80.93,12.98 80.93,14.36 L80.93,16.58 C80.93,17.96 79.8,19.08 78.43,19.08 Z" fill="#212121" opacity="0.57"/>
  <path d="M59.555,13.588 Q64.027,14.177 68.663,16.959 Q73.08,14.161 76.971,13.601 Q77.976,13.457 78.55,13.887 Q79.124,14.317 79.269,15.321 Q79.413,16.326 78.983,16.9 Q78.553,17.474 77.549,17.619 Q75.12,17.968 72.333,19.486 Q74.578,21.227 76.86,23.468 Q86.976,33.404 83.605,41.528 Q82.802,43.465 80.689,44.461 Q78.445,45.52 76.002,44.813 Q70.783,43.304 68.165,34.833 Q67.682,38.816 67.048,41.557 Q64.542,52.395 58.566,54 Q53.53,55.358 50.04,51.16 Q46.06,46.371 49.398,37.785 Q51.266,32.971 59.363,24.735 Q62.286,21.762 65.025,19.573 Q61.943,17.996 59.025,17.612 Q58.019,17.48 57.582,16.91 Q57.145,16.341 57.278,15.335 Q57.543,13.323 59.555,13.588 Z M64.958,24.968 Q63.637,26.176 62.257,27.58 Q54.747,35.219 53.182,39.255 Q50.71,45.615 53.162,48.565 Q54.987,50.761 57.514,50.08 Q63.479,48.478 64.948,25.126 Q64.953,25.04 64.958,24.968 Z M70.569,23.265 Q70.679,24.122 70.749,25.12 Q71.101,30.174 71.662,32.301 Q73.675,39.915 77.13,40.914 Q79.216,41.517 79.855,39.972 Q82.176,34.38 74.015,26.364 Q72.269,24.649 70.569,23.265 Z" fill="#FAFAFA"/>
</svg>

<svg viewBox="0 0 128 128" xmlns="http://www.w3.org/2000/svg">
  <g>
    <path d="M112.44,23.63H64.01h-0.02H15.56L6.91,88.04l51.98,11.61l3.6-20.25c0.15-0.84,0.83-1.25,1.5-1.24 c0.68-0.01,1.35,0.41,1.5,1.24l3.6,20.25l51.98-11.61L112.44,23.63z" fill="#29B6F6"/>
    <path d="M113.13,12.07c-0.08-2.27-1.85-4.06-4.01-4.06H18.86c-2.16,0-3.93,1.79-4.01,4.06l0.71,11.56h96.85 L113.13,12.07z" fill="#1C3AA9"/>
    <path d="M6.76,89.22c0,0-2.09,16.39-2.75,21.33c-0.1,0.79,1.2,1.69,1.2,1.69 c19.15,9.75,48.13,9.72,48.13,9.72c0.84,0.17,1.65-0.38,1.8-1.22c0.39-2.21,0.79-4.42,1.18-6.63c0.4-2.26,2.01-11.31,2.41-13.57 L6.76,89.22z" fill="#2A56C6"/>
    <path d="M58.52,101.73c-3.42-2.08-4.78-11.6-8.82-12.09s-7.56,7.25-12.25,6.58 c-4.69-0.66-4.45-10.25-9.58-11.29c-4.65-0.94-8.91,7.62-13.75,5.95c-3.33-1.14-2.35-6.45-6.51-8.14L5.8,96.39 c1.13,2.55,3.07,5.47,7.15,6.44c5.34,1.26,7.87-2.36,10-4.38c0.6-0.57,1.6-1.85,2.48-1.81c1.27,0.07,1.52,1.56,1.81,2.76 c0.67,2.85,2.5,7.39,7.84,8.65c5.34,1.26,8.45-1.96,10.57-3.97c0.6-0.57,1.5-2.13,2.49-1.86s0.95,1.37,1.41,2.68 c0.92,2.63,2.23,6.73,6.97,8.24L58.52,101.73z" fill="#4DB6AC"/>
    <path d="M58.25,103.24l0.98-5.48c-0.74-0.51-1.3-1.56-2-3.5c-0.96-2.64-2.27-6.26-6.46-7.25 c-4.19-0.99-6.98,1.66-9.02,3.6c-1.92,1.82-2.82,2.54-4.04,2.25c-1.22-0.29-1.7-1.33-2.6-3.81c-0.96-2.64-2.27-6.26-6.46-7.25 c-4.19-0.99-6.98,1.66-9.02,3.6c-1.92,1.82-2.82,2.53-4.03,2.25c-1.22-0.29-1.7-1.33-2.6-3.82c-0.8-2.22-1.75-5.06-4.56-6.52 l-1.06,7.03c0.16,0.39,0.32,0.83,0.51,1.34c0.96,2.64,2.27,6.26,6.46,7.25c4.19,0.99,6.98-1.66,9.02-3.6 c1.92-1.82,2.82-2.54,4.03-2.25c1.22,0.29,1.7,1.33,2.6,3.81c0.96,2.64,2.27,6.26,6.46,7.25c4.19,0.99,6.98-1.66,9.02-3.6 c1.92-1.82,2.82-2.53,4.04-2.25c1.22,0.29,1.71,1.33,2.61,3.82C53.04,98.66,54.41,102.11,58.25,103.24z" fill="#82E8B6"/>
    <path d="M121.24,89.22c0,0,2.09,16.39,2.75,21.33c0.1,0.79-1.2,1.69-1.2,1.69 c-19.15,9.75-48.13,9.72-48.13,9.72c-0.84,0.17-1.65-0.38-1.8-1.22c-0.39-2.21-0.79-4.42-1.18-6.63 c-0.4-2.26-2.01-11.31-2.41-13.57L121.24,89.22z" fill="#2A56C6"/>
    <path d="M69.48,101.73c3.42-2.08,4.78-11.6,8.82-12.09s7.56,7.25,12.25,6.58 c4.69-0.66,4.45-10.25,9.58-11.29c4.65-0.94,8.91,7.62,13.75,5.95c3.33-1.14,2.35-6.45,6.51-8.14l1.82,13.66 c-1.13,2.55-3.07,5.47-7.15,6.44c-5.34,1.26-7.87-2.36-10-4.38c-0.6-0.57-1.6-1.85-2.48-1.81c-1.27,0.07-1.52,1.56-1.81,2.76 c-0.67,2.85-2.5,7.39-7.84,8.65c-5.34,1.26-8.45-1.96-10.57-3.97c-0.6-0.57-1.5-2.13-2.49-1.86c-0.98,0.27-0.95,1.37-1.41,2.68 c-0.92,2.63-2.23,6.73-6.97,8.24L69.48,101.73z" fill="#4DB6AC"/>
    <path d="M69.75,103.24l-0.98-5.48c0.74-0.51,1.3-1.56,2-3.5c0.96-2.64,2.27-6.26,6.46-7.25 c4.19-0.99,6.98,1.66,9.02,3.6c1.92,1.82,2.82,2.54,4.04,2.25c1.22-0.29,1.7-1.33,2.6-3.81c0.96-2.64,2.27-6.26,6.46-7.25 c4.19-0.99,6.98,1.66,9.02,3.6c1.92,1.82,2.82,2.53,4.03,2.25c1.22-0.29,1.7-1.33,2.6-3.82c0.8-2.22,1.75-5.06,4.56-6.52l1.06,7.03 c-0.16,0.39-0.32,0.83-0.51,1.34c-0.96,2.64-2.27,6.26-6.46,7.25c-4.19,0.99-6.98-1.66-9.02-3.6c-1.92-1.82-2.82-2.54-4.03-2.25 c-1.22,0.29-1.7,1.33-2.6,3.81c-0.96,2.64-2.27,6.26-6.46,7.25c-4.19,0.99-6.98-1.66-9.02-3.6c-1.92-1.82-2.82-2.53-4.04-2.25 c-1.22,0.29-1.71,1.33-2.61,3.82C74.96,98.66,73.59,102.11,69.75,103.24z" fill="#82E8B6"/>
    <path d="M78.43,19.08H56.15c-1.38,0-2.5-1.12-2.5-2.5v-2.22c0-1.37,1.12-2.5,2.5-2.5h22.28 c1.38,0,2.5,1.12,2.5,2.5v2.22C80.93,17.96,79.8,19.08,78.43,19.08z" opacity="0.57" fill="#212121"/>
    <path d="M59.29,15.6 c9.04,1.19,26.54,15.27,22.44,25.15c-1.23,2.97-8.53,5.31-12.03-7.93c-1.32-5-0.71-12.45-2.04-12.72 c-1.33-0.27,0.47,29.23-9.62,31.94c-3.82,1.03-11.1-2.33-6.75-13.52c1.54-3.97,15.19-21.36,25.97-22.91" fill="none" stroke="#FAFAFA" stroke-width="4.059" stroke-linecap="round" stroke-miterlimit="10"/>
  </g>
</svg>
